src/main/resources/icons/AllIcons/nodes/servlet.svg

<svg xmlns="http://www.w3.org/2000/svg" width="16" height="16" viewBox="0 0 16 16"><rect id="frame" width="16" height="16" fill="none"/><path fill="#9AA7B0" d="M3 2h10v3H3V2zm1 1v1h2V3H4zM3 6h10v3H3V6zm1 1v1h2V7H4zm-1 3h10v3H3v-3zm1 1v1h2v-1H4z" fill-opacity=".8" fill-rule="evenodd"/></svg>

<!-- Copyright 2000-2021 JetBrains s.r.o. Use of this source code is governed by the Apache 2.0 license that can be found in the LICENSE file. -->
<svg xmlns="http://www.w3.org/2000/svg" width="16" height="16" viewBox="0 0 16 16">
  <g fill="none" fill-opacity=".8" fill-rule="evenodd">
    <path fill="#9AA7B0" d="M3 2L13 2 13 5 3 5 3 2zM4 3L4 4 6 4 6 3 4 3zM3 6L13 6 13 9 3 9 3 6zM4 7L4 8 6 8 6 7 4 7zM3 10L13 10 13 13 3 13 3 10zM4 11L4 12 6 12 6 11 4 11z"/>
  </g>
</svg>
